svgs/solid/calendar-week.svg

<svg xmlns="http://www.w3.org/2000/svg" viewBox="0 0 448 512"><!-- Font Awesome Pro 5.15.3 by @fontawesome - https://fontawesome.com License - https://fontawesome.com/license (Commercial License) --><path d="M0 464c0 26.5 21.5 48 48 48h352c26.5 0 48-21.5 48-48V192H0v272zm64-192c0-8.8 7.2-16 16-16h288c8.8 0 16 7.2 16 16v64c0 8.8-7.2 16-16 16H80c-8.8 0-16-7.2-16-16v-64zM400 64h-48V16c0-8.8-7.2-16-16-16h-32c-8.8 0-16 7.2-16 16v48H160V16c0-8.8-7.2-16-16-16h-32c-8.8 0-16 7.2-16 16v48H48C21.5 64 0 85.5 0 112v48h448v-48c0-26.5-21.5-48-48-48z"/></svg>

<svg xmlns="http://www.w3.org/2000/svg" viewBox="0 0 448 512"><!--! Font Awesome Pro 6.0.0-alpha3 by @fontawesome - https://fontawesome.com License - https://fontawesome.com/license (Commercial License) --><path d="M400 64H352V31.1C352 14.4 337.6 0 320 0C302.4 0 288 14.4 288 31.1V64H160V31.1C160 14.4 145.6 0 128 0S96 14.4 96 31.1V64H48c-26.51 0-48 21.49-48 48L0 160h448l.0002-48C448 85.49 426.5 64 400 64zM.0002 464c0 26.5 21.5 48 48 48h352c26.5 0 48-21.5 48-48L448 192H0L.0002 464zM64 272C64 263.3 71.25 256 80 256h288C376.8 256 384 263.3 384 272v64c0 8.75-7.25 16-15.1 16h-288C71.25 352 64 344.8 64 336V272z"/></svg>
